icons/svg/seamark_big/landmark_mast.svg

<?xml version="1.0" encoding="UTF-8" standalone="no"?>
<svg
   xmlns:dc="http://purl.org/dc/elements/1.1/"
   xmlns:cc="http://creativecommons.org/ns#"
   xmlns:rdf="http://www.w3.org/1999/02/22-rdf-syntax-ns#"
   xmlns:svg="http://www.w3.org/2000/svg"
   xmlns="http://www.w3.org/2000/svg"
   xmlns:sodipodi="http://sodipodi.sourceforge.net/DTD/sodipodi-0.dtd"
   xmlns:inkscape="http://www.inkscape.org/namespaces/inkscape"
   width="1060"
   height="1060"
   id="svg2"
   version="1.1"
   inkscape:version="0.48.4 r9939"
   sodipodi:docname="landmark_mast.svg">
  <defs
     id="defs13">
    <inkscape:path-effect
       effect="gears"
       id="path-effect3774"
       is_visible="true"
       teeth="6"
       phi="-1.2" />
    <inkscape:path-effect
       effect="bend_path"
       id="path-effect3772"
       is_visible="false"
       bendpath="m 95.790098,316.51174 c 144.429032,-206.42506 223.313032,-11.7428 339.548092,0"
       prop_scale="1.19"
       scale_y_rel="false"
       vertical="false"
       bendpath-nodetypes="cc" />
  </defs>
  <sodipodi:namedview
     pagecolor="#ffffff"
     bordercolor="#666666"
     borderopacity="1"
     objecttolerance="10"
     gridtolerance="10"
     guidetolerance="10"
     inkscape:pageopacity="0"
     inkscape:pageshadow="2"
     inkscape:window-width="1920"
     inkscape:window-height="1004"
     id="namedview11"
     showgrid="false"
     inkscape:zoom="0.8137931"
     inkscape:cx="686.43438"
     inkscape:cy="573.55136"
     inkscape:window-x="1680"
     inkscape:window-y="0"
     inkscape:window-maximized="1"
     inkscape:current-layer="svg2"
     inkscape:snap-object-midpoints="true"
     inkscape:snap-center="true" />
  <metadata
     id="metadata2975">image/svg+xmlen<rdf:RDF>
  <cc:Work
     rdf:about="">
    <dc:format>image/svg+xml</dc:format>
    <dc:type
       rdf:resource="http://purl.org/dc/dcmitype/StillImage" />
    <dc:title />
  </cc:Work>
</rdf:RDF>
</metadata>
  <path
     style="font-size:medium;font-style:normal;font-variant:normal;font-weight:normal;font-stretch:normal;text-indent:0;text-align:start;text-decoration:none;line-height:normal;letter-spacing:normal;word-spacing:normal;text-transform:none;direction:ltr;block-progression:tb;writing-mode:lr-tb;text-anchor:start;baseline-shift:baseline;opacity:0.372;color:#000000;fill:#e4e4e4;fill-opacity:1;fill-rule:nonzero;stroke:#a35151;stroke-width:0;stroke-linecap:round;stroke-linejoin:miter;stroke-miterlimit:4;stroke-opacity:1;stroke-dashoffset:0;marker:none;visibility:visible;display:inline;overflow:visible;enable-background:accumulate;font-family:Sans;-inkscape-font-specification:Sans"
     d="m 511.125,258.21875 c -7.4219,-0.35063 -14.94219,1.98674 -20.85771,6.48276 -5.91552,4.49602 -10.18077,11.11611 -11.82979,18.36099 l -11.625,51.0625 0.0312,0 -80.39253,357.3125 -19.96644,0 c -7.46241,0.002 -14.87823,3.44787 -20.15495,9.36556 -5.27673,5.91769 -8.34944,14.23432 -8.35112,22.60319 l 0,23.03125 c 0.002,8.36888 3.0744,16.68551 8.35113,22.60321 5.27673,5.91769 12.69256,9.36365 20.15498,9.36554 l 76.51523,0 c 14.28306,21.79386 38.92416,36.15625 66.65625,36.15625 27.74757,0 52.39798,-14.34051 66.6875,-36.15625 l 76.48398,0 c 7.46242,-0.002 14.87825,-3.44785 20.15498,-9.36554 5.27673,-5.9177 8.34945,-14.23433 8.35113,-22.60321 l 0,-23.03125 c -0.002,-8.36888 -3.0744,-16.68551 -8.35113,-22.60321 -5.27673,-5.91769 -12.69256,-9.36365 -20.15498,-9.36554 l -18.46645,0 L 552.40625,334.125 540.8125,283.0625 c -1.53817,-6.75702 -5.34259,-12.97741 -10.65709,-17.4248 -5.3145,-4.4474 -12.10806,-7.09585 -19.03041,-7.41895 z"
     id="path4173"
     inkscape:connector-curvature="0"
     sodipodi:nodetypes="cscccccsccsccsccsccsccccsc" />
  <path
     sodipodi:type="arc"
     style="color:#000000;fill:none;stroke:#000000;stroke-width:30.33652288;stroke-linecap:butt;stroke-linejoin:miter;stroke-miterlimit:4;stroke-opacity:1;stroke-dasharray:none;stroke-dashoffset:0;marker:none;visibility:visible;display:inline;overflow:visible;enable-background:accumulate"
     id="path2985"
     sodipodi:cx="510.26483"
     sodipodi:cy="737.74365"
     sodipodi:rx="69.120766"
     sodipodi:ry="69.120766"
     d="m 579.3856,737.74365 a 69.120766,69.120766 0 1 1 -138.24153,0 69.120766,69.120766 0 1 1 138.24153,0 z"
     transform="matrix(0.56558888,0,0,0.56558888,221.05031,318.17685)" />
  <path
     style="font-size:medium;font-style:normal;font-variant:normal;font-weight:normal;font-stretch:normal;text-indent:0;text-align:start;text-decoration:none;line-height:normal;letter-spacing:normal;word-spacing:normal;text-transform:none;direction:ltr;block-progression:tb;writing-mode:lr-tb;text-anchor:start;baseline-shift:baseline;color:#000000;fill:#000000;fill-opacity:1;stroke:none;stroke-width:30.00000191;marker:none;visibility:visible;display:inline;overflow:visible;enable-background:accumulate;font-family:Sans;-inkscape-font-specification:Sans"
     d="m 369.92862,723.91311 0,23.04878 109.246,0 0,-23.04878 z m 170.17801,0 0,23.04878 109.246,0 0,-23.04878 z"
     id="path3754"
     inkscape:connector-curvature="0"
     sodipodi:nodetypes="cccccccccc" />
  <path
     style="font-size:medium;font-style:normal;font-variant:normal;font-weight:normal;font-stretch:normal;text-indent:0;text-align:start;text-decoration:none;line-height:normal;letter-spacing:normal;word-spacing:normal;text-transform:none;direction:ltr;block-progression:tb;writing-mode:lr-tb;text-anchor:start;baseline-shift:baseline;color:#000000;fill:#000000;fill-opacity:1;stroke:none;stroke-width:27.83600044;marker:none;visibility:visible;display:inline;overflow:visible;enable-background:accumulate;font-family:Sans;-inkscape-font-specification:Sans"
     d="m 509.55188,291.77286 -9.81111,43.06467 -90.0825,394.13121 21.01777,0.61939 78.85308,-345.70328 78.98965,347.67994 19.59944,-5.98267 -88.77799,-390.74459 z"
     id="path4087"
     inkscape:connector-curvature="0"
     sodipodi:nodetypes="ccccccccc" />
</svg>

<svg width="1060" height="1060" viewBox="0 0 1060 1060" fill="none" xmlns="http://www.w3.org/2000/svg">
<path opacity="0.372" d="M511.125 258.219C503.703 257.868 496.183 260.206 490.267 264.702C484.352 269.198 480.086 275.818 478.437 283.063L466.812 334.125H466.844L386.451 691.438H366.485C359.022 691.44 351.606 694.885 346.33 700.803C341.053 706.721 337.98 715.037 337.979 723.406V746.438C337.981 754.806 341.053 763.123 346.33 769.041C351.606 774.958 359.022 778.404 366.485 778.406H443C457.283 800.2 481.924 814.562 509.656 814.562C537.404 814.562 562.054 800.222 576.344 778.406H652.828C660.29 778.404 667.706 774.958 672.983 769.041C678.259 763.123 681.332 754.806 681.334 746.438V723.406C681.332 715.037 678.259 706.721 672.983 700.803C667.706 694.885 660.29 691.439 652.828 691.438H634.361L552.406 334.125L540.812 283.063C539.274 276.306 535.47 270.085 530.155 265.638C524.841 261.19 518.047 258.542 511.125 258.219V258.219Z" fill="#E4E4E4"/>
<path d="M548.745 735.437C548.745 740.571 547.735 745.655 545.771 750.399C543.806 755.143 540.927 759.453 537.297 763.084C533.666 766.715 529.356 769.596 524.613 771.561C519.869 773.526 514.785 774.537 509.651 774.537C504.516 774.537 499.432 773.526 494.688 771.561C489.945 769.596 485.635 766.715 482.005 763.084C478.374 759.453 475.495 755.143 473.531 750.399C471.566 745.655 470.556 740.571 470.557 735.437C470.556 730.302 471.566 725.218 473.531 720.474C475.495 715.73 478.374 711.42 482.005 707.789C485.635 704.158 489.945 701.277 494.688 699.312C499.432 697.347 504.516 696.336 509.651 696.336C514.785 696.336 519.869 697.347 524.613 699.312C529.356 701.277 533.666 704.158 537.297 707.789C540.927 711.42 543.806 715.73 545.771 720.474C547.735 725.218 548.745 730.302 548.745 735.437Z" stroke="black" stroke-width="17.158"/>
<path d="M369.929 723.913V746.962H479.175V723.913H369.929ZM540.107 723.913V746.962H649.353V723.913H540.107Z" fill="black"/>
<path d="M509.552 291.773L499.741 334.837L409.658 728.969L430.676 729.588L509.529 383.885L588.519 731.565L608.118 725.582L519.34 334.837L509.552 291.773Z" fill="black"/>
</svg>
